X: 6456
T: Cat In The Corner, The
R: jig
M: 6/8
K: Dmixolydian
|:D|FEF DFA|dAF AFD|(3 DEF E CEG|cGE CEG|
~F3 DFA|dAF AFD|GBG EFG|AFD D2:|
|:e|fdd ~d3|afd def|ecc ~c3|
[1 gec ceg|fdd ~d3|afd def|gfg eag|fdd d2:|
[2 gec efg|afa geg|fdf e^cA|GBG EFG|AFD D2||

